!!!COM: Music21
!!!OTL: polka_Siege-Of-Ennis--The
!!!OMV: polka_Siege-Of-Ennis--The
**kern
*clefG2
*k[f#]
*G:
*M2/4
=1
16.dLL
32eK
16d
16cJJ
=
16BLL
16d
16g
16aJJ
4ryy
=
16bLL
32ddL
32bJ
16a
32bL
32aJJJ
4ryy
=
16gLL
16e
16e
16gJJ
4ryy
=
16.dLL
32eK
16d
16cJJ
4ryy
=
16BLL
16d
16g
16aJJ
4ryy
=
16bLL
32ddL
32bJ
16a
32bL
32aJJJ
4ryy
!!linebreak:original
=
8gL
16gL
16eJJ
4ryy
=||
*M2/4
16.dLL
32eK
16d
16cJJ
=
16BLL
16d
16g
16aJJ
4ryy
=
16bLL
32ddL
32bJ
16a
32bL
32aJJJ
4ryy
=
16gLL
16e
16e
16gJJ
4ryy
=
16.dLL
32eK
16d
16cJJ
4ryy
=
16BLL
16d
16g
16aJJ
4ryy
!!linebreak:original
=
16bLL
32ddL
32bJ
16a
32bL
32aJJJ
4ryy
=
8gL
16gL
16aJJ
4ryy
=||
16bLL
16dd
16dd
16bJJ
4ryy
=
16ccLL
16ee
16ee
16ddJJ
4ryy
=
16bLL
32ddL
32bJ
16a
32bL
32aJJJ
4ryy
=
16gLL
16e
16e
16gJJ
4ryy
=
16bLL
16dd
16dd
16bJJ
4ryy
!!linebreak:original
=
16ccLL
16ee
16.ee
32ff#JJk
4ryy
=
32ggLLL
32ff#J
16ee
16ff#
16ddJJ
4ryy
=
8eeL
16eeL
16ff#JJ
4ryy
=
16ggLL
16ee
16ff#
16ddJJ
4ryy
=
16eeLL
16dd
16b
16aJJ
4ryy
=
16bLL
32ddL
32bJ
16a
32bL
32aJJJ
4ryy
=
16gLL
16e
16e
16gJJ
4ryy
!!linebreak:original
=
16.dLL
32eK
16d
16cJJ
4ryy
=
16BLL
16d
16g
16aJJ
4ryy
=
16bLL
32ddL
32bJ
16a
32bL
32aJJJ
4ryy
=
4g
8g
8ryy
=||
*-
